zenario/admin/images/icon-content-home-draft.svg

<?xml version="1.0" encoding="iso-8859-1"?>
<!-- Generator: Adobe Illustrator 21.0.2, SVG Export Plug-In . SVG Version: 6.00 Build 0)  -->
<svg version="1.1" xmlns="http://www.w3.org/2000/svg" xmlns:xlink="http://www.w3.org/1999/xlink" x="0px" y="0px"
	 viewBox="0 0 16.284 19.995" style="enable-background:new 0 0 16.284 19.995;" xml:space="preserve">
<g id="home_x5F_content_x5F_draft">
	<g>
		<g>
			<g>
				<polygon style="fill:#EB7833;" points="0.164,19.831 11.202,19.831 16.12,14.968 16.12,0.159 0.164,0.159 				"/>
			</g>
			<g>
				<path style="fill:#C13C0C;" d="M11.27,19.995H0v-20h16.284v15.041L11.27,19.995z M0.328,19.667h10.807l4.822-4.768V0.323H0.328
					V19.667z"/>
			</g>
		</g>
		<path style="fill:#EEC58B;" d="M13.524,9.918L11.443,8.33V5.702H9.957v1.491l-2.17-1.656L2.05,9.918l0.903,1.182l0.618-0.471
			v5.426h8.434v-5.426l0.618,0.471L13.524,9.918z M11.178,15.229H9.274V12.09H6.3v3.138H4.397v-5.128l3.39-2.588l3.391,2.588V15.229
			z"/>
		<g>
			<polygon style="fill:#EEC58B;" points="15.929,14.977 11.211,19.585 11.184,14.968 			"/>
			<path style="fill:#C13C0C;" d="M11.104,19.843l-0.029-4.985l5.123,0.01L11.104,19.843z M11.294,15.077l0.025,4.25l4.342-4.242
				L11.294,15.077z"/>
		</g>
		<g>
			<polygon style="fill:#C13C0C;" points="11.202,19.722 10.984,19.722 10.984,14.694 15.792,14.694 15.792,14.913 11.202,14.913 
							"/>
		</g>
		<g>
			<polygon style="fill:#F28C5A;" points="10.984,19.722 0.273,19.722 0.273,0.484 15.811,0.503 15.792,14.695 15.574,14.694 
				15.592,0.721 0.492,0.703 0.492,19.503 10.984,19.503 			"/>
		</g>
		<g>
			<g>
				<polyline style="fill-rule:evenodd;clip-rule:evenodd;fill:#C13C0C;" points="14.461,10.885 14.54,10.698 14.586,10.446 
					14.594,10.204 14.579,9.92 14.475,9.803 14.37,9.688 14.266,9.572 14.187,9.461 14.093,9.368 13.999,9.275 13.905,9.181 
					13.822,9.11 13.824,9.239 13.812,9.383 13.825,9.534 13.814,9.677 13.826,9.827 13.815,9.972 13.827,10.122 13.815,10.267 
					13.777,10.275 13.699,10.294 13.571,10.301 13.391,10.332 13.147,10.365 12.88,10.391 12.562,10.405 12.23,10.433 
					11.848,10.446 11.439,10.486 11.009,10.484 10.561,10.527 10.092,10.528 9.596,10.554 9.114,10.563 8.618,10.581 8.586,10.669 
					8.542,10.738 8.51,10.825 8.466,10.893 8.408,10.973 8.337,11.065 8.256,11.138 8.188,11.198 8.556,11.188 8.899,11.169 
					9.23,11.162 9.536,11.145 9.788,11.147 10.028,11.161 10.218,11.162 10.369,11.169 10.863,11.181 11.469,11.203 12.131,11.166 
					12.805,11.145 13.418,11.085 13.943,11.016 14.303,10.958 				"/>
			</g>
			<g>
				<polyline style="fill-rule:evenodd;clip-rule:evenodd;fill:#C13C0C;" points="8.466,10.893 8.51,10.825 8.542,10.738 
					8.586,10.669 8.618,10.581 8.059,10.597 7.504,10.579 6.945,10.587 6.415,10.568 5.895,10.565 5.39,10.547 4.909,10.533 
					4.454,10.523 4.051,10.498 3.673,10.477 3.333,10.452 3.057,10.43 2.829,10.421 2.653,10.399 2.554,10.371 2.516,10.374 
					2.494,10.027 2.459,9.665 2.437,9.32 2.425,8.991 2.403,8.647 2.38,8.303 2.368,7.975 2.345,7.632 2.321,7.315 2.297,6.974 
					2.285,6.647 2.262,6.306 2.251,5.981 2.227,5.641 2.205,5.302 2.181,4.964 2.459,4.986 2.839,4.992 3.294,5.004 3.811,5.036 
					4.407,5.046 5.038,5.074 5.709,5.092 6.418,5.097 6.975,5.119 7.545,5.126 8.115,5.133 8.686,5.14 9.241,5.162 9.787,5.166 
					10.332,5.169 10.862,5.188 11.357,5.187 11.813,5.198 12.258,5.191 12.663,5.196 13.018,5.197 13.334,5.212 13.588,5.202 
					13.803,5.205 13.815,5.682 13.826,6.159 13.823,6.652 13.834,7.13 13.831,7.625 13.829,8.119 13.825,8.615 13.822,9.11 
					13.905,9.181 13.999,9.275 14.093,9.368 14.187,9.461 14.266,9.572 14.37,9.688 14.475,9.803 14.579,9.92 14.559,9.709 
					14.553,9.483 14.534,9.236 14.539,9.033 14.549,8.454 14.545,7.725 14.521,6.956 14.496,6.189 14.467,5.46 14.427,4.882 
					14.41,4.471 14.412,4.305 14.13,4.32 13.839,4.314 13.574,4.31 13.282,4.305 13.005,4.283 12.727,4.262 12.448,4.275 
					12.17,4.253 11.893,4.233 11.616,4.212 11.324,4.207 11.047,4.188 10.755,4.183 10.475,4.196 10.184,4.192 9.892,4.188 
					9.487,4.192 9.069,4.179 8.676,4.169 8.27,4.173 7.864,4.178 7.471,4.167 7.066,4.171 6.659,4.175 6.343,4.171 6.024,4.195 
					5.707,4.189 5.387,4.213 5.082,4.223 4.763,4.245 4.458,4.254 4.139,4.276 3.82,4.297 3.502,4.318 3.196,4.327 2.864,4.359 
					2.557,4.392 2.238,4.411 1.931,4.443 1.611,4.486 1.589,4.903 1.583,5.307 1.589,5.7 1.581,6.105 1.613,6.502 1.618,6.895 
					1.65,7.294 1.693,7.707 1.71,8.118 1.741,8.519 1.784,8.936 1.814,9.339 1.856,9.758 1.885,10.188 1.902,10.603 1.93,11.034 
					1.955,11.042 2.031,11.039 2.117,11.078 2.187,11.151 2.237,11.166 2.337,11.171 2.526,11.189 2.766,11.197 3.069,11.209 
					3.435,11.225 3.814,11.23 4.257,11.237 4.725,11.248 5.206,11.246 5.688,11.24 6.195,11.238 6.716,11.221 7.21,11.223 
					7.718,11.21 8.188,11.198 8.256,11.138 8.337,11.065 8.408,10.973 				"/>
			</g>
		</g>
		<g>
			<g>
				<path style="fill:#4F2508;" d="M3.897,9.224H3.12c-0.067,0-0.144-0.006-0.144-0.095c0-0.043,0.028-0.07,0.067-0.083
					C3.15,9.013,3.147,8.994,3.147,8.881V7.277c0-0.046,0.006-0.129-0.052-0.147C3.034,7.108,2.976,7.099,2.976,7.022
					c0-0.08,0.077-0.089,0.138-0.089h0.784V9.224z M4.035,6.934c0.52-0.006,0.955,0.355,0.992,1.145
					c0.034,0.72-0.484,1.145-0.992,1.145V9.046c0.187-0.025,0.196-0.199,0.196-0.315V7.427c0-0.116-0.009-0.291-0.196-0.315V6.934z"
					/>
			</g>
			<g>
				<path style="fill:#4F2508;" d="M5.445,7.277c0-0.113,0.003-0.132-0.104-0.165c-0.04-0.012-0.067-0.04-0.067-0.083
					c0-0.089,0.101-0.095,0.113-0.095h0.808v1.947c0,0.113-0.003,0.132,0.104,0.165c0.04,0.012,0.067,0.04,0.067,0.083
					c0,0.089-0.101,0.095-0.113,0.095H5.387c-0.012,0-0.113-0.006-0.113-0.095c0-0.043,0.028-0.07,0.067-0.083
					c0.107-0.034,0.104-0.052,0.104-0.165V7.277z M6.333,6.934h0.015c0.199,0,0.407-0.006,0.591,0.083
					c0.205,0.101,0.309,0.269,0.312,0.502c0.006,0.352-0.226,0.505-0.539,0.579v0.006c0.272,0.04,0.533,0.119,0.539,0.444v0.269
					c0,0.028-0.009,0.089,0.031,0.089c0.049,0,0.058-0.089,0.131-0.089c0.04,0,0.089,0.046,0.089,0.089
					c0,0.089-0.101,0.202-0.168,0.254C7.23,9.245,7.12,9.27,6.989,9.27c-0.132,0-0.251-0.034-0.346-0.129
					C6.535,9.031,6.52,8.896,6.52,8.752V8.544c0-0.141-0.003-0.312-0.187-0.331V8.033C6.499,8.018,6.52,7.916,6.52,7.766v-0.37
					c0-0.153-0.034-0.227-0.187-0.282V6.934z"/>
			</g>
			<g>
				<path style="fill:#4F2508;" d="M8.276,7.708L7.988,8.755C7.939,8.942,7.982,8.994,8.086,9.04
					c0.049,0.022,0.092,0.04,0.092,0.101c0,0.086-0.098,0.083-0.159,0.083H7.667c-0.061,0-0.172-0.003-0.172-0.092
					c0-0.073,0.052-0.07,0.12-0.104C7.679,8.994,7.762,8.924,7.82,8.707l0.367-1.344h0.009L8.276,7.708z M8.604,8.63H8.157
					l0.043-0.178h0.374L8.264,7.099l0.04-0.165H8.98L9.44,8.869c0.018,0.086,0.021,0.144,0.107,0.181
					c0.043,0.018,0.076,0.04,0.076,0.095c0,0.083-0.11,0.08-0.168,0.08H8.693c-0.061,0-0.15-0.006-0.15-0.086
					c0-0.049,0.018-0.064,0.058-0.086c0.08-0.046,0.092-0.067,0.064-0.187L8.604,8.63z"/>
			</g>
			<g>
				<path style="fill:#4F2508;" d="M9.956,7.277c0-0.113,0.003-0.132-0.104-0.165c-0.04-0.012-0.067-0.04-0.067-0.083
					c0-0.089,0.101-0.095,0.113-0.095h0.808v1.947c0,0.113-0.003,0.132,0.104,0.165c0.04,0.012,0.067,0.04,0.067,0.083
					c0,0.089-0.101,0.095-0.113,0.095H9.898c-0.012,0-0.113-0.006-0.113-0.095c0-0.043,0.028-0.07,0.067-0.083
					c0.107-0.034,0.104-0.052,0.104-0.165V7.277z M10.844,6.934h0.683v0.621c0,0.015-0.003,0.073-0.095,0.073
					c-0.052,0-0.067-0.031-0.083-0.076c-0.08-0.248-0.236-0.398-0.505-0.441V6.934z M10.844,7.956
					c0.129-0.034,0.187-0.153,0.214-0.269c0.015-0.052,0.034-0.101,0.098-0.101c0.095,0,0.08,0.11,0.08,0.134v0.662
					c0,0.025,0.015,0.135-0.08,0.135c-0.064,0-0.083-0.049-0.098-0.101c-0.028-0.116-0.086-0.236-0.214-0.27V7.956z"/>
			</g>
			<g>
				<path style="fill:#4F2508;" d="M11.657,6.934h0.441v0.178c-0.159,0.113-0.202,0.315-0.23,0.478
					c-0.009,0.067-0.024,0.147-0.11,0.147c-0.092,0-0.101-0.076-0.101-0.089V6.934z M12.236,6.934h0.75v1.947
					c0,0.113-0.003,0.132,0.104,0.165c0.04,0.012,0.067,0.04,0.067,0.083c0,0.089-0.101,0.095-0.113,0.095h-0.866
					c-0.012,0-0.113-0.006-0.113-0.095c0-0.043,0.028-0.07,0.067-0.083c0.107-0.034,0.104-0.052,0.104-0.165V6.934z M13.565,7.647
					c0,0.012-0.009,0.089-0.101,0.089c-0.086,0-0.101-0.079-0.11-0.147c-0.028-0.162-0.07-0.364-0.23-0.478V6.934h0.441V7.647z"/>
			</g>
		</g>
	</g>
</g>
<g id="Layer_1">
</g>
</svg>

<?xml version="1.0" encoding="UTF-8" standalone="no"?>
<!DOCTYPE svg PUBLIC "-//W3C//DTD SVG 1.1//EN" "http://www.w3.org/Graphics/SVG/1.1/DTD/svg11.dtd">
<svg width="100%" height="100%" viewBox="0 0 17 20" version="1.1" xmlns="http://www.w3.org/2000/svg" xmlns:xlink="http://www.w3.org/1999/xlink" xml:space="preserve" xmlns:serif="http://www.serif.com/" style="fill-rule:evenodd;clip-rule:evenodd;stroke-linejoin:round;stroke-miterlimit:2;">
    <g id="home_x5F_content_x5F_draft">
        <g>
            <g>
                <g>
                    <rect x="0.164" y="0.159" width="15.956" height="19.672" style="fill:rgb(235,120,51);fill-rule:nonzero;"/>
                </g>
                <g>
                    <path d="M16.284,19.995L0,19.995L0,-0.005L16.284,-0.005L16.284,19.995ZM0.328,19.667L15.957,19.667L15.957,0.323L0.328,0.323L0.328,19.667Z" style="fill:rgb(193,60,12);fill-rule:nonzero;"/>
                </g>
            </g>
            <g transform="matrix(1,0,0,1,0.355,0.463)">
                <path d="M13.524,9.918L11.443,8.33L11.443,5.702L9.957,5.702L9.957,7.193L7.787,5.537L2.05,9.918L2.953,11.1L3.571,10.629L3.571,16.055L12.005,16.055L12.005,10.629L12.623,11.1L13.524,9.918ZM11.178,15.229L9.274,15.229L9.274,12.09L6.3,12.09L6.3,15.228L4.397,15.228L4.397,10.1L7.787,7.512L11.178,10.1L11.178,15.229Z" style="fill:rgb(238,197,139);fill-rule:nonzero;"/>
            </g>
            <g>
                <path d="M15.792,19.722L0.273,19.722L0.273,0.484L15.811,0.503L15.792,19.5L15.574,19.499L15.592,0.721L0.492,0.703L0.492,19.503L15.792,19.503L15.792,19.722Z" style="fill:rgb(242,140,90);fill-rule:nonzero;"/>
            </g>
        </g>
    </g>
</svg>
